X:961
T: A Savanyú tizenhat szél gatyája
Q: 1/4=100
L:1/4
K:F
G/A/ B c | d/d/G/c/ | B/A/ G z |
d/d/ c g | f/e/ c d | B/A/ B z |
d/d/ c g | f/e/ c d | B/A/ G z |
G/A/ B c | d/d/G/c/ | B/A/ G z |


